Cawnonical Mono-Glyph Icon Suite/packaged/Cawnonical Mono-Glyph Icon Suite Magenta/apps/glyphs/symboleditor.svg

<?xml version="1.0" encoding="utf-8"?>
<svg height="48" viewBox="0 -960 960 960" width="48" xmlns="http://www.w3.org/2000/svg">
  <path fill="rgb(255, 70, 180)" d="M 398 -843 L 132 -843 C 122.067 -843 113.75 -846.523 107.05 -853.57 C 100.35 -860.617 97 -869.117 97 -879.07 C 97 -889.023 100.35 -897.5 107.05 -904.5 C 113.75 -911.5 122.067 -915 132 -915 L 398 -915 C 407.933 -915 416.25 -911.44 422.95 -904.32 C 429.65 -897.207 433 -888.673 433 -878.72 C 433 -868.767 429.65 -860.323 422.95 -853.39 C 416.25 -846.463 407.933 -843 398 -843 Z M 230 -729 L 133 -729 C 123.067 -729 114.583 -732.533 107.55 -739.6 C 100.517 -746.667 97 -755.193 97 -765.18 C 97 -775.727 100.377 -784.333 107.13 -791 C 113.877 -797.667 122.413 -801 132.74 -801 L 397 -801 C 406.933 -801 415.417 -797.607 422.45 -790.82 C 429.483 -784.04 433 -775.54 433 -765.32 C 433 -755.107 429.627 -746.5 422.88 -739.5 C 416.127 -732.5 407.5 -729 397 -729 L 300 -729 L 300 -569 C 300 -559.347 296.767 -551.267 290.3 -544.76 C 283.84 -538.253 275.817 -535 266.23 -535 C 256.077 -535 247.5 -538.64 240.5 -545.92 C 233.5 -553.207 230 -561.567 230 -571 Z M 634.13 -520 C 606.71 -520 583.833 -529.623 565.5 -548.87 C 547.167 -568.117 538 -590.45 538 -615.87 C 538 -643.29 547.157 -666 565.47 -684 C 583.79 -702 606.703 -711 634.21 -711 C 642.177 -711 649.3 -709.667 655.58 -707 C 661.86 -704.333 666.667 -701.667 670 -699 L 670 -868.25 C 670 -878.303 673.28 -886.607 679.84 -893.16 C 686.393 -899.72 694.78 -903 705 -903 L 816 -903 C 826.22 -903 834.607 -899.743 841.16 -893.23 C 847.72 -886.717 851 -878.383 851 -868.23 C 851 -858.077 847.72 -849.5 841.16 -842.5 C 834.607 -835.5 826.103 -832 815.65 -832 L 729 -832 L 729 -616.44 C 729 -588.813 720.043 -565.833 702.13 -547.5 C 684.217 -529.167 661.55 -520 634.13 -520 Z M 201 -65 C 173 -65 149.333 -74.467 130 -93.4 C 110.667 -112.333 101 -135.533 101 -163 C 101 -177 103.833 -189.907 109.5 -201.72 C 115.167 -213.533 123 -224.293 133 -234 L 181 -282 L 165 -299 C 155 -309 147.333 -320.387 142 -333.16 C 136.667 -345.933 134 -358.193 134 -369.94 C 134 -397.407 143.493 -420.45 162.48 -439.07 C 181.46 -457.69 204.627 -467 231.98 -467 C 259.327 -467 282.333 -457.69 301 -439.07 C 319.667 -420.45 329 -397.407 329 -369.94 C 329 -358.193 327 -345.933 323 -333.16 C 319 -320.387 312 -309 302 -299 L 286 -282 L 329 -239 L 363.69 -273.69 C 371.23 -281.23 379.757 -285 389.27 -285 C 398.777 -285 407.15 -281.333 414.39 -274 C 421.517 -266.847 424.9 -258.393 424.54 -248.64 C 424.18 -238.88 420.667 -230.667 414 -224 L 376 -186 L 404 -158 C 410.667 -151.453 414 -143.483 414 -134.09 C 414 -124.697 410.447 -116.667 403.34 -110 C 396.233 -103.333 388.067 -100 378.84 -100 C 369.613 -100 361.667 -103.333 355 -110 L 321 -143 L 275.26 -96.26 C 264.42 -85.42 252.717 -77.5 240.15 -72.5 C 227.583 -67.5 214.533 -65 201 -65 Z M 232 -326 L 252.06 -347.06 C 254.02 -350.353 255.5 -353.6 256.5 -356.8 C 257.5 -360 258 -364.267 258 -369.6 C 258 -376.533 255.69 -382.667 251.07 -388 C 246.45 -393.333 239.95 -396 231.57 -396 C 223.19 -396 216.667 -393.327 212 -387.98 C 207.333 -382.627 205 -376.633 205 -370 C 205 -364 205.667 -359.5 207 -356.5 C 208.333 -353.5 209.98 -350.353 211.94 -347.06 Z M 199.82 -136 C 202.607 -136 206.333 -137 211 -139 C 215.667 -141 219.333 -143.667 222 -147 L 270 -194 L 233 -231 L 184 -182 C 182 -179.573 180 -176.467 178 -172.68 C 176 -168.893 175 -165.45 175 -162.35 C 175 -154.983 177.353 -148.75 182.06 -143.65 C 186.76 -138.55 192.68 -136 199.82 -136 Z M 521.204 -128.68 L 521.204 -199.83 C 521.204 -204.95 522.272 -210.06 524.408 -214.75 C 526.526 -219.64 529.73 -224.55 533.966 -229.01 L 726.125 -421.17 C 732.946 -428.42 740.555 -433.54 748.913 -436.73 C 757.271 -439.93 765.91 -441.63 774.83 -441.63 C 783.357 -441.63 791.865 -439.7 800.41 -435.88 C 808.956 -432.47 816.545 -427.15 823.16 -420.53 L 856.93 -386.88 C 863.526 -380.06 868.511 -372.6 871.922 -364.3 C 875.295 -355.99 877 -347.67 877 -339.37 C 877 -330.43 875.164 -321.27 871.528 -312.74 C 867.893 -304.44 862.664 -296.76 855.955 -289.95 L 664.433 -97.576 C 660.01 -93.323 655.344 -90.343 650.416 -88.638 C 645.524 -86.501 640.465 -85.864 635.255 -85.864 L 564.099 -85.864 C 552.068 -85.864 541.93 -89.912 533.647 -98.214 C 525.345 -106.53 521.204 -116.74 521.204 -128.68 Z M 589.642 -154.24 L 624.292 -154.24 L 731.953 -262.46 L 729.086 -265.44 L 731.953 -262.69 L 715.518 -280.15 L 698.202 -296.34 L 589.642 -189.17 Z M 729.086 -265.44 L 698.202 -296.34 L 715.518 -279.93 Z"/>
</svg>

<svg height="48" viewBox="0 -960 960 960" width="48" xmlns="http://www.w3.org/2000/svg"><path fill="rgb(255, 70, 180)" d="m398-843h-266q-14.9 0-24.95-10.57-10.05-10.57-10.05-25.5t10.05-25.43q10.05-10.5 24.95-10.5h266q14.9 0 24.95 10.68 10.05 10.67 10.05 25.6 0 14.93-10.05 25.33-10.05 10.39-24.95 10.39zm-168 114h-97q-14.9 0-25.45-10.6-10.55-10.6-10.55-25.58 0-15.82 10.13-25.82 10.12-10 25.61-10h264.26q14.9 0 25.45 10.18 10.55 10.17 10.55 25.5 0 15.32-10.12 25.82-10.13 10.5-25.88 10.5h-97v160q0 14.48-9.7 24.24-9.69 9.76-24.07 9.76-15.23 0-25.73-10.92-10.5-10.93-10.5-25.08zm358 628q-11 11-25.5 10t-25.5-12q-11-11-11-25.5t11-25.5l271-270q11-10 25-10t25 10.5q11 10.5 10.5 25.5t-10.5 26zm-4-224q-24.4 0-41.2-16.9-16.8-16.91-16.8-41.7 0-24.8 16.71-41.6 16.7-16.8 41.2-16.8 24.49 0 41.79 16.87 17.3 16.88 17.3 41.63 0 24.75-17.3 41.62-17.3 16.88-41.7 16.88zm234.4 239q-24.8 0-41.6-16.73-16.8-16.74-16.8-41.27 0-24.97 16.73-41.98 16.74-17.02 41.27-17.02 24.97 0 41.98 16.9 17.02 16.91 17.02 41.7 0 24.8-16.9 41.6-16.91 16.8-41.7 16.8zm-184.27-434q-41.13 0-68.63-28.87-27.5-28.87-27.5-67 0-41.13 27.47-68.13 27.48-27 68.74-27 11.95 0 21.37 4 9.42 4 14.42 8v-169.25q0-15.08 9.84-24.91 9.83-9.84 25.16-9.84h111q15.33 0 25.16 9.77 9.84 9.77 9.84 25t-9.84 25.73q-9.83 10.5-25.51 10.5h-86.65v215.56q0 41.44-26.87 68.94t-68 27.5zm-433.13 455q-42 0-71-28.4t-29-69.6q0-21 8.5-38.72t23.5-32.28l48-48-16-17q-15-15-23-34.16-8-19.16-8-36.78 0-41.2 28.48-69.13 28.47-27.93 69.5-27.93 41.02 0 69.02 27.93 28 27.93 28 69.13 0 17.62-6 36.78t-21 34.16l-16 17 43 43 34.69-34.69q11.31-11.31 25.58-11.31 14.26 0 25.12 11 10.69 10.73 10.15 25.36-.54 14.64-10.54 24.64l-38 38 28 28q10 9.82 10 23.91t-10.66 24.09q-10.66 10-24.5 10t-23.84-10l-34-33-45.74 46.74q-16.26 16.26-35.11 23.76-18.85 7.5-39.15 7.5zm31-261 20.06-21.06q2.94-4.94 4.44-9.74 1.5-4.8 1.5-12.8 0-10.4-6.93-18.4-6.93-8-19.5-8t-19.57 8.02q-7 8.03-7 17.98 0 9 2 13.5t4.94 9.44zm-32.18 190q4.18 0 11.18-3t11-8l48-47-37-37-49 49q-3 3.64-6 9.32t-3 10.33q0 11.05 7.06 18.7 7.05 7.65 17.76 7.65z"/></svg>
